images/50659348.svg

<?xml version="1.0" encoding="UTF-8"?>
<svg xmlns="http://www.w3.org/2000/svg" xmlns:xlink="http://www.w3.org/1999/xlink" width="300pt" height="300pt" viewBox="0 0 300 300" version="1.1">
<defs>
<g>
<symbol overflow="visible" id="glyph0-0">
<path style="stroke:none;" d="M 0.453125 1.59375 L 0.453125 -6.34375 L 4.953125 -6.34375 L 4.953125 1.59375 Z M 0.953125 1.09375 L 4.453125 1.09375 L 4.453125 -5.84375 L 0.953125 -5.84375 Z M 0.953125 1.09375 "/>
</symbol>
<symbol overflow="visible" id="glyph0-1">
<path style="stroke:none;" d="M 0.890625 -6.5625 L 4.65625 -6.5625 L 4.65625 -5.8125 L 1.765625 -5.8125 L 1.765625 -3.875 L 4.375 -3.875 L 4.375 -3.140625 L 1.765625 -3.140625 L 1.765625 0 L 0.890625 0 Z M 0.890625 -6.5625 "/>
</symbol>
<symbol overflow="visible" id="glyph0-2">
<path style="stroke:none;" d="M 0.890625 -6.5625 L 2.078125 -6.5625 L 4.984375 -1.078125 L 4.984375 -6.5625 L 5.84375 -6.5625 L 5.84375 0 L 4.65625 0 L 1.75 -5.484375 L 1.75 0 L 0.890625 0 Z M 0.890625 -6.5625 "/>
</symbol>
<symbol overflow="visible" id="glyph0-3">
<path style="stroke:none;" d="M 0.890625 -6.5625 L 1.765625 -6.5625 L 1.765625 -3.875 L 5 -3.875 L 5 -6.5625 L 5.890625 -6.5625 L 5.890625 0 L 5 0 L 5 -3.125 L 1.765625 -3.125 L 1.765625 0 L 0.890625 0 Z M 0.890625 -6.5625 "/>
</symbol>
<symbol overflow="visible" id="glyph0-4">
<path style="stroke:none;" d="M 3.546875 -5.953125 C 2.898438 -5.953125 2.382812 -5.710938 2 -5.234375 C 1.625 -4.753906 1.4375 -4.101562 1.4375 -3.28125 C 1.4375 -2.445312 1.625 -1.789062 2 -1.3125 C 2.382812 -0.832031 2.898438 -0.59375 3.546875 -0.59375 C 4.191406 -0.59375 4.703125 -0.832031 5.078125 -1.3125 C 5.453125 -1.789062 5.640625 -2.445312 5.640625 -3.28125 C 5.640625 -4.101562 5.453125 -4.753906 5.078125 -5.234375 C 4.703125 -5.710938 4.191406 -5.953125 3.546875 -5.953125 Z M 3.546875 -6.6875 C 4.460938 -6.6875 5.195312 -6.375 5.75 -5.75 C 6.300781 -5.132812 6.578125 -4.3125 6.578125 -3.28125 C 6.578125 -2.238281 6.300781 -1.410156 5.75 -0.796875 C 5.195312 -0.179688 4.460938 0.125 3.546875 0.125 C 2.617188 0.125 1.878906 -0.179688 1.328125 -0.796875 C 0.773438 -1.410156 0.5 -2.238281 0.5 -3.28125 C 0.5 -4.3125 0.773438 -5.132812 1.328125 -5.75 C 1.878906 -6.375 2.617188 -6.6875 3.546875 -6.6875 Z M 3.546875 -6.6875 "/>
</symbol>
</g>
</defs>
<g id="surface21757">
<rect x="0" y="0" width="300" height="300" style="fill:rgb(100%,100%,100%);fill-opacity:1;stroke:none;"/>
<path style="fill:none;stroke-width:1.2;stroke-linecap:butt;stroke-linejoin:miter;stroke:rgb(20%,80%,80%);stroke-opacity:1;stroke-miterlimit:10;" d="M 264.75 146.21875 L 254.378906 149.589844 "/>
<path style="fill:none;stroke-width:1.2;stroke-linecap:butt;stroke-linejoin:miter;stroke:rgb(0%,0%,0%);stroke-opacity:1;stroke-miterlimit:10;" d="M 254.378906 149.589844 L 244.003906 152.957031 "/>
<path style=" stroke:none;fill-rule:nonzero;fill:rgb(100%,100%,100%);fill-opacity:1;" d="M 261.75 140.71875 L 267.75 140.71875 L 267.75 151.71875 L 261.75 151.71875 Z M 261.75 140.71875 "/>
<g style="fill:rgb(20%,80%,80%);fill-opacity:1;">
  <use xlink:href="#glyph0-1" x="261.75" y="149.381836"/>
</g>
<path style="fill:none;stroke-width:1.2;stroke-linecap:butt;stroke-linejoin:miter;stroke:rgb(0%,0%,0%);stroke-opacity:1;stroke-miterlimit:10;" d="M 244.003906 152.957031 L 249.125 162.589844 "/>
<path style="fill:none;stroke-width:1.2;stroke-linecap:butt;stroke-linejoin:miter;stroke:rgb(20%,80%,80%);stroke-opacity:1;stroke-miterlimit:10;" d="M 249.125 162.589844 L 254.242188 172.21875 "/>
<path style="fill:none;stroke-width:1.2;stroke-linecap:butt;stroke-linejoin:miter;stroke:rgb(0%,0%,0%);stroke-opacity:1;stroke-miterlimit:10;" d="M 244.003906 152.957031 L 226.8125 166.386719 "/>
<path style="fill:none;stroke-width:1.2;stroke-linecap:butt;stroke-linejoin:miter;stroke:rgb(0%,0%,0%);stroke-opacity:1;stroke-miterlimit:10;" d="M 240.96875 131.355469 L 244.003906 152.957031 "/>
<path style=" stroke:none;fill-rule:nonzero;fill:rgb(100%,100%,100%);fill-opacity:1;" d="M 251.242188 166.71875 L 257.242188 166.71875 L 257.242188 177.71875 L 251.242188 177.71875 Z M 251.242188 166.71875 "/>
<g style="fill:rgb(20%,80%,80%);fill-opacity:1;">
  <use xlink:href="#glyph0-1" x="251.242188" y="175.381836"/>
</g>
<path style="fill:none;stroke-width:1.2;stroke-linecap:butt;stroke-linejoin:miter;stroke:rgb(0%,0%,0%);stroke-opacity:1;stroke-miterlimit:10;" d="M 226.8125 166.386719 L 206.589844 158.210938 "/>
<path style="fill:none;stroke-width:1.2;stroke-linecap:butt;stroke-linejoin:miter;stroke:rgb(0%,0%,0%);stroke-opacity:1;stroke-miterlimit:10;" d="M 206.589844 158.210938 L 203.558594 136.609375 "/>
<path style="fill:none;stroke-width:1.2;stroke-linecap:butt;stroke-linejoin:miter;stroke:rgb(0%,0%,0%);stroke-opacity:1;stroke-miterlimit:10;" d="M 203.558594 136.609375 L 220.746094 123.183594 "/>
<path style="fill:none;stroke-width:1.2;stroke-linecap:butt;stroke-linejoin:miter;stroke:rgb(0%,0%,0%);stroke-opacity:1;stroke-miterlimit:10;" d="M 203.558594 136.609375 L 185.058594 148.167969 "/>
<path style="fill:none;stroke-width:1.2;stroke-linecap:butt;stroke-linejoin:miter;stroke:rgb(0%,0%,0%);stroke-opacity:1;stroke-miterlimit:10;" d="M 198.28125 115.445312 L 203.558594 136.609375 "/>
<path style="fill:none;stroke-width:1.2;stroke-linecap:butt;stroke-linejoin:miter;stroke:rgb(0%,0%,0%);stroke-opacity:1;stroke-miterlimit:10;" d="M 220.746094 123.183594 L 240.96875 131.355469 "/>
<path style="fill:none;stroke-width:1.2;stroke-linecap:butt;stroke-linejoin:miter;stroke:rgb(0%,0%,0%);stroke-opacity:1;stroke-miterlimit:10;" d="M 185.058594 148.167969 L 183.164062 158.910156 "/>
<path style="fill:none;stroke-width:1.2;stroke-linecap:butt;stroke-linejoin:miter;stroke:rgb(0%,0%,100%);stroke-opacity:1;stroke-miterlimit:10;" d="M 183.164062 158.910156 L 181.265625 169.648438 "/>
<path style="fill:none;stroke-width:1.2;stroke-linecap:butt;stroke-linejoin:miter;stroke:rgb(0%,0%,0%);stroke-opacity:1;stroke-miterlimit:10;" d="M 179.625 149.425781 L 178.109375 158.015625 "/>
<path style="fill:none;stroke-width:1.2;stroke-linecap:butt;stroke-linejoin:miter;stroke:rgb(0%,0%,100%);stroke-opacity:1;stroke-miterlimit:10;" d="M 178.109375 158.015625 L 176.59375 166.609375 "/>
<path style="fill:none;stroke-width:1.2;stroke-linecap:butt;stroke-linejoin:miter;stroke:rgb(0%,0%,0%);stroke-opacity:1;stroke-miterlimit:10;" d="M 168.347656 134.144531 L 185.058594 148.167969 "/>
<path style="fill:none;stroke-width:1.2;stroke-linecap:butt;stroke-linejoin:miter;stroke:rgb(0%,0%,100%);stroke-opacity:1;stroke-miterlimit:10;" d="M 181.265625 169.648438 L 171.019531 173.378906 "/>
<path style="fill:none;stroke-width:1.2;stroke-linecap:butt;stroke-linejoin:miter;stroke:rgb(0%,0%,0%);stroke-opacity:1;stroke-miterlimit:10;" d="M 171.019531 173.378906 L 160.769531 177.105469 "/>
<path style=" stroke:none;fill-rule:nonzero;fill:rgb(100%,100%,100%);fill-opacity:1;" d="M 178.265625 164.148438 L 185.265625 164.148438 L 185.265625 175.148438 L 178.265625 175.148438 Z M 178.265625 164.148438 "/>
<g style="fill:rgb(0%,0%,100%);fill-opacity:1;">
  <use xlink:href="#glyph0-2" x="178.265625" y="172.811523"/>
</g>
<path style="fill:none;stroke-width:1.2;stroke-linecap:butt;stroke-linejoin:miter;stroke:rgb(0%,0%,0%);stroke-opacity:1;stroke-miterlimit:10;" d="M 160.769531 177.105469 L 144.0625 163.085938 "/>
<path style="fill:none;stroke-width:1.2;stroke-linecap:butt;stroke-linejoin:miter;stroke:rgb(0%,0%,0%);stroke-opacity:1;stroke-miterlimit:10;" d="M 162.398438 171.773438 L 149.03125 160.554688 "/>
<path style="fill:none;stroke-width:1.2;stroke-linecap:butt;stroke-linejoin:miter;stroke:rgb(0%,0%,0%);stroke-opacity:1;stroke-miterlimit:10;" d="M 144.0625 163.085938 L 147.851562 141.605469 "/>
<path style="fill:none;stroke-width:1.2;stroke-linecap:butt;stroke-linejoin:miter;stroke:rgb(0%,0%,0%);stroke-opacity:1;stroke-miterlimit:10;" d="M 144.0625 163.085938 L 123.5625 170.542969 "/>
<path style="fill:none;stroke-width:1.2;stroke-linecap:butt;stroke-linejoin:miter;stroke:rgb(0%,0%,0%);stroke-opacity:1;stroke-miterlimit:10;" d="M 147.851562 141.605469 L 168.347656 134.144531 "/>
<path style="fill:none;stroke-width:1.2;stroke-linecap:butt;stroke-linejoin:miter;stroke:rgb(0%,0%,0%);stroke-opacity:1;stroke-miterlimit:10;" d="M 151.65625 145.679688 L 168.054688 139.714844 "/>
<path style="fill:none;stroke-width:1.2;stroke-linecap:butt;stroke-linejoin:miter;stroke:rgb(0%,0%,0%);stroke-opacity:1;stroke-miterlimit:10;" d="M 168.347656 134.144531 L 172.4375 124.035156 "/>
<path style="fill:none;stroke-width:1.2;stroke-linecap:butt;stroke-linejoin:miter;stroke:rgb(0%,0%,100%);stroke-opacity:1;stroke-miterlimit:10;" d="M 172.4375 124.035156 L 176.523438 113.921875 "/>
<path style="fill:none;stroke-width:1.2;stroke-linecap:butt;stroke-linejoin:miter;stroke:rgb(0%,0%,100%);stroke-opacity:1;stroke-miterlimit:10;" d="M 176.523438 113.921875 L 187.402344 114.683594 "/>
<path style="fill:none;stroke-width:1.2;stroke-linecap:butt;stroke-linejoin:miter;stroke:rgb(0%,0%,0%);stroke-opacity:1;stroke-miterlimit:10;" d="M 187.402344 114.683594 L 198.28125 115.445312 "/>
<path style=" stroke:none;fill-rule:nonzero;fill:rgb(100%,100%,100%);fill-opacity:1;" d="M 169.523438 108.421875 L 183.523438 108.421875 L 183.523438 119.421875 L 169.523438 119.421875 Z M 169.523438 108.421875 "/>
<g style="fill:rgb(0%,0%,100%);fill-opacity:1;">
  <use xlink:href="#glyph0-2" x="169.523438" y="117.084961"/>
  <use xlink:href="#glyph0-3" x="176.500977" y="117.084961"/>
</g>
<path style="fill:none;stroke-width:1.2;stroke-linecap:butt;stroke-linejoin:miter;stroke:rgb(0%,0%,0%);stroke-opacity:1;stroke-miterlimit:10;" d="M 200.246094 117.09375 L 207.257812 108.742188 "/>
<path style="fill:none;stroke-width:1.2;stroke-linecap:butt;stroke-linejoin:miter;stroke:rgb(100%,0%,0%);stroke-opacity:1;stroke-miterlimit:10;" d="M 207.257812 108.742188 L 214.269531 100.386719 "/>
<path style="fill:none;stroke-width:1.2;stroke-linecap:butt;stroke-linejoin:miter;stroke:rgb(0%,0%,0%);stroke-opacity:1;stroke-miterlimit:10;" d="M 196.316406 113.796875 L 203.328125 105.441406 "/>
<path style="fill:none;stroke-width:1.2;stroke-linecap:butt;stroke-linejoin:miter;stroke:rgb(100%,0%,0%);stroke-opacity:1;stroke-miterlimit:10;" d="M 203.328125 105.441406 L 210.339844 97.089844 "/>
<path style=" stroke:none;fill-rule:nonzero;fill:rgb(100%,100%,100%);fill-opacity:1;" d="M 208.304688 93.238281 L 216.304688 93.238281 L 216.304688 104.238281 L 208.304688 104.238281 Z M 208.304688 93.238281 "/>
<g style="fill:rgb(100%,0%,0%);fill-opacity:1;">
  <use xlink:href="#glyph0-4" x="208.304688" y="101.901367"/>
</g>
<path style="fill:none;stroke-width:1.2;stroke-linecap:butt;stroke-linejoin:miter;stroke:rgb(0%,0%,0%);stroke-opacity:1;stroke-miterlimit:10;" d="M 123.5625 170.542969 L 106.855469 156.519531 "/>
<path style="fill:none;stroke-width:1.2;stroke-linecap:butt;stroke-linejoin:miter;stroke:rgb(0%,0%,0%);stroke-opacity:1;stroke-miterlimit:10;" d="M 118.59375 173.070312 L 105.226562 161.855469 "/>
<path style="fill:none;stroke-width:1.2;stroke-linecap:butt;stroke-linejoin:miter;stroke:rgb(0%,0%,0%);stroke-opacity:1;stroke-miterlimit:10;" d="M 119.773438 192.023438 L 123.5625 170.542969 "/>
<path style="fill:none;stroke-width:1.2;stroke-linecap:butt;stroke-linejoin:miter;stroke:rgb(0%,0%,0%);stroke-opacity:1;stroke-miterlimit:10;" d="M 106.855469 156.519531 L 86.355469 163.976562 "/>
<path style="fill:none;stroke-width:1.2;stroke-linecap:butt;stroke-linejoin:miter;stroke:rgb(0%,0%,0%);stroke-opacity:1;stroke-miterlimit:10;" d="M 86.355469 163.976562 L 82.566406 185.460938 "/>
<path style="fill:none;stroke-width:1.2;stroke-linecap:butt;stroke-linejoin:miter;stroke:rgb(0%,0%,0%);stroke-opacity:1;stroke-miterlimit:10;" d="M 91.03125 167.019531 L 88 184.203125 "/>
<path style="fill:none;stroke-width:1.2;stroke-linecap:butt;stroke-linejoin:miter;stroke:rgb(0%,0%,0%);stroke-opacity:1;stroke-miterlimit:10;" d="M 86.355469 163.976562 L 69.648438 149.957031 "/>
<path style="fill:none;stroke-width:1.2;stroke-linecap:butt;stroke-linejoin:miter;stroke:rgb(0%,0%,0%);stroke-opacity:1;stroke-miterlimit:10;" d="M 82.566406 185.460938 L 99.273438 199.480469 "/>
<path style="fill:none;stroke-width:1.2;stroke-linecap:butt;stroke-linejoin:miter;stroke:rgb(0%,0%,0%);stroke-opacity:1;stroke-miterlimit:10;" d="M 99.273438 199.480469 L 119.773438 192.023438 "/>
<path style="fill:none;stroke-width:1.2;stroke-linecap:butt;stroke-linejoin:miter;stroke:rgb(0%,0%,0%);stroke-opacity:1;stroke-miterlimit:10;" d="M 99.570312 193.914062 L 115.96875 187.945312 "/>
<path style="fill:none;stroke-width:1.2;stroke-linecap:butt;stroke-linejoin:miter;stroke:rgb(0%,0%,0%);stroke-opacity:1;stroke-miterlimit:10;" d="M 119.773438 192.023438 L 136.480469 206.046875 "/>
<path style="fill:none;stroke-width:1.2;stroke-linecap:butt;stroke-linejoin:miter;stroke:rgb(0%,0%,0%);stroke-opacity:1;stroke-miterlimit:10;" d="M 68.769531 147.542969 L 58.523438 151.273438 "/>
<path style="fill:none;stroke-width:1.2;stroke-linecap:butt;stroke-linejoin:miter;stroke:rgb(100%,0%,0%);stroke-opacity:1;stroke-miterlimit:10;" d="M 58.523438 151.273438 L 48.273438 155.003906 "/>
<path style="fill:none;stroke-width:1.2;stroke-linecap:butt;stroke-linejoin:miter;stroke:rgb(0%,0%,0%);stroke-opacity:1;stroke-miterlimit:10;" d="M 70.527344 152.367188 L 60.277344 156.097656 "/>
<path style="fill:none;stroke-width:1.2;stroke-linecap:butt;stroke-linejoin:miter;stroke:rgb(100%,0%,0%);stroke-opacity:1;stroke-miterlimit:10;" d="M 60.277344 156.097656 L 50.027344 159.824219 "/>
<path style="fill:none;stroke-width:1.2;stroke-linecap:butt;stroke-linejoin:miter;stroke:rgb(0%,0%,0%);stroke-opacity:1;stroke-miterlimit:10;" d="M 69.648438 149.957031 L 71.542969 139.214844 "/>
<path style="fill:none;stroke-width:1.2;stroke-linecap:butt;stroke-linejoin:miter;stroke:rgb(0%,0%,100%);stroke-opacity:1;stroke-miterlimit:10;" d="M 71.542969 139.214844 L 73.4375 128.472656 "/>
<path style=" stroke:none;fill-rule:nonzero;fill:rgb(100%,100%,100%);fill-opacity:1;" d="M 41.152344 151.914062 L 49.152344 151.914062 L 49.152344 162.914062 L 41.152344 162.914062 Z M 41.152344 151.914062 "/>
<g style="fill:rgb(100%,0%,0%);fill-opacity:1;">
  <use xlink:href="#glyph0-4" x="41.152344" y="160.577148"/>
</g>
<path style="fill:none;stroke-width:1.2;stroke-linecap:butt;stroke-linejoin:miter;stroke:rgb(0%,0%,100%);stroke-opacity:1;stroke-miterlimit:10;" d="M 73.4375 128.472656 L 65.085938 121.464844 "/>
<path style="fill:none;stroke-width:1.2;stroke-linecap:butt;stroke-linejoin:miter;stroke:rgb(0%,0%,0%);stroke-opacity:1;stroke-miterlimit:10;" d="M 65.085938 121.464844 L 56.730469 114.453125 "/>
<path style=" stroke:none;fill-rule:nonzero;fill:rgb(100%,100%,100%);fill-opacity:1;" d="M 66.4375 122.972656 L 80.4375 122.972656 L 80.4375 133.972656 L 66.4375 133.972656 Z M 66.4375 122.972656 "/>
<g style="fill:rgb(0%,0%,100%);fill-opacity:1;">
  <use xlink:href="#glyph0-2" x="66.4375" y="131.635742"/>
  <use xlink:href="#glyph0-3" x="73.415039" y="131.635742"/>
</g>
<path style="fill:none;stroke-width:1.2;stroke-linecap:butt;stroke-linejoin:miter;stroke:rgb(0%,0%,0%);stroke-opacity:1;stroke-miterlimit:10;" d="M 56.730469 114.453125 L 35.25 110.660156 "/>
<path style="fill:none;stroke-width:1.2;stroke-linecap:butt;stroke-linejoin:miter;stroke:rgb(0%,0%,0%);stroke-opacity:1;stroke-miterlimit:10;" d="M 49.273438 93.953125 L 56.730469 114.453125 "/>
<path style="fill:none;stroke-width:1.2;stroke-linecap:butt;stroke-linejoin:miter;stroke:rgb(0%,0%,0%);stroke-opacity:1;stroke-miterlimit:10;" d="M 35.25 110.660156 L 49.273438 93.953125 "/>
</g>
</svg>

<svg xmlns="http://www.w3.org/2000/svg" xmlns:xlink="http://www.w3.org/1999/xlink" width="300pt" height="300pt" viewBox="0 0 300 300"><defs><symbol overflow="visible"><path d="M.453 1.594v-7.938h4.5v7.938zm.5-.5h3.5v-6.938h-3.5zm0 0"/></symbol><symbol overflow="visible" id="a"><path d="M.89-6.563h3.766v.75h-2.89v1.938h2.61v.734h-2.61V0H.89zm0 0"/></symbol><symbol overflow="visible" id="b"><path d="M.89-6.563H2.08l2.906 5.485v-5.484h.86V0H4.656L1.75-5.484V0H.89zm0 0"/></symbol><symbol overflow="visible" id="c"><path d="M.89-6.563h.876v2.688H5v-2.688h.89V0H5v-3.125H1.766V0H.89zm0 0"/></symbol><symbol overflow="visible" id="d"><path d="M3.547-5.953c-.65 0-1.164.242-1.547.72-.375.48-.563 1.13-.563 1.952 0 .835.188 1.49.563 1.967.383.48.898.72 1.547.72.644 0 1.156-.24 1.53-.72.376-.476.564-1.132.564-1.968 0-.822-.187-1.474-.562-1.954-.375-.477-.887-.72-1.53-.72zm0-.734c.914 0 1.648.312 2.203.937.55.617.828 1.438.828 2.47 0 1.042-.277 1.87-.828 2.483-.555.617-1.29.922-2.203.922-.93 0-1.668-.305-2.22-.922C.774-1.41.5-2.237.5-3.28c0-1.033.273-1.853.828-2.47.55-.625 1.29-.938 2.22-.938zm0 0"/></symbol></defs><g><path fill="#fff" d="M0 0h300v300H0z"/><path d="M264.75 146.22l-10.37 3.37" stroke-width="1.2" stroke="#3cc" stroke-miterlimit="10" fill="none"/><path d="M254.38 149.59l-10.376 3.367" stroke-width="1.2" stroke="#000" stroke-miterlimit="10" fill="none"/><path d="M261.75 140.72h6v11h-6zm0 0" fill="#fff"/><use xlink:href="#a" x="261.75" y="149.382" fill="#3cc"/><path d="M244.004 152.957l5.12 9.633" stroke-width="1.2" stroke="#000" stroke-miterlimit="10" fill="none"/><path d="M249.125 162.59l5.117 9.63" stroke-width="1.2" stroke="#3cc" stroke-miterlimit="10" fill="none"/><path d="M244.004 152.957l-17.19 13.43M240.97 131.355l3.034 21.602" stroke-width="1.2" stroke="#000" stroke-miterlimit="10" fill="none"/><path d="M251.242 166.72h6v11h-6zm0 0" fill="#fff"/><use xlink:href="#a" x="251.242" y="175.382" fill="#3cc"/><path d="M226.813 166.387l-20.223-8.176M206.59 158.21l-3.03-21.6M203.56 136.61l17.186-13.426M203.56 136.61l-18.5 11.558M198.28 115.445l5.28 21.164M220.746 123.184l20.223 8.17M185.06 148.168l-1.896 10.742" stroke-width="1.2" stroke="#000" stroke-miterlimit="10" fill="none"/><path d="M183.164 158.91l-1.898 10.738" stroke-width="1.2" stroke="#00f" stroke-miterlimit="10" fill="none"/><path d="M179.625 149.426l-1.516 8.59" stroke-width="1.2" stroke="#000" stroke-miterlimit="10" fill="none"/><path d="M178.11 158.016l-1.516 8.593" stroke-width="1.2" stroke="#00f" stroke-miterlimit="10" fill="none"/><path d="M168.348 134.145l16.71 14.023" stroke-width="1.2" stroke="#000" stroke-miterlimit="10" fill="none"/><path d="M181.266 169.648l-10.246 3.73" stroke-width="1.2" stroke="#00f" stroke-miterlimit="10" fill="none"/><path d="M171.02 173.38l-10.25 3.725" stroke-width="1.2" stroke="#000" stroke-miterlimit="10" fill="none"/><path d="M178.266 164.148h7v11h-7zm0 0" fill="#fff"/><use xlink:href="#b" x="178.266" y="172.812" fill="#00f"/><path d="M160.77 177.105l-16.708-14.02M162.398 171.773l-13.367-11.218M144.063 163.086l3.79-21.48M144.063 163.086l-20.5 7.457M147.852 141.605l20.496-7.46M151.656 145.68l16.4-5.965M168.348 134.145l4.09-10.11" stroke-width="1.2" stroke="#000" stroke-miterlimit="10" fill="none"/><path d="M172.438 124.035l4.085-10.113M176.523 113.922l10.88.762" stroke-width="1.2" stroke="#00f" stroke-miterlimit="10" fill="none"/><path d="M187.402 114.684l10.88.76" stroke-width="1.2" stroke="#000" stroke-miterlimit="10" fill="none"/><path d="M169.523 108.422h14v11h-14zm0 0" fill="#fff"/><g fill="#00f"><use xlink:href="#b" x="169.523" y="117.085"/><use xlink:href="#c" x="176.501" y="117.085"/></g><path d="M200.246 117.094l7.012-8.352" stroke-width="1.2" stroke="#000" stroke-miterlimit="10" fill="none"/><path d="M207.258 108.742l7.012-8.355" stroke-width="1.2" stroke="#f00" stroke-miterlimit="10" fill="none"/><path d="M196.316 113.797l7.012-8.356" stroke-width="1.2" stroke="#000" stroke-miterlimit="10" fill="none"/><path d="M203.328 105.44l7.012-8.35" stroke-width="1.2" stroke="#f00" stroke-miterlimit="10" fill="none"/><path d="M208.305 93.238h8v11h-8zm0 0" fill="#fff"/><use xlink:href="#d" x="208.305" y="101.901" fill="#f00"/><path d="M123.563 170.543l-16.708-14.023M118.594 173.07l-13.367-11.215M119.773 192.023l3.79-21.48M106.855 156.52l-20.5 7.457M86.355 163.977l-3.79 21.484M91.03 167.02L88 184.203M86.355 163.977l-16.707-14.02M82.566 185.46l16.707 14.02M99.273 199.48l20.5-7.457M99.57 193.914l16.4-5.97M119.773 192.023l16.707 14.024M68.77 147.543l-10.247 3.73" stroke-width="1.2" stroke="#000" stroke-miterlimit="10" fill="none"/><path d="M58.523 151.273l-10.25 3.73" stroke-width="1.2" stroke="#f00" stroke-miterlimit="10" fill="none"/><path d="M70.527 152.367l-10.25 3.73" stroke-width="1.2" stroke="#000" stroke-miterlimit="10" fill="none"/><path d="M60.277 156.098l-10.25 3.726" stroke-width="1.2" stroke="#f00" stroke-miterlimit="10" fill="none"/><path d="M69.648 149.957l1.895-10.742" stroke-width="1.2" stroke="#000" stroke-miterlimit="10" fill="none"/><path d="M71.543 139.215l1.894-10.742" stroke-width="1.2" stroke="#00f" stroke-miterlimit="10" fill="none"/><path d="M41.152 151.914h8v11h-8zm0 0" fill="#fff"/><use xlink:href="#d" x="41.152" y="160.577" fill="#f00"/><path d="M73.438 128.473l-8.352-7.008" stroke-width="1.2" stroke="#00f" stroke-miterlimit="10" fill="none"/><path d="M65.086 121.465l-8.356-7.012" stroke-width="1.2" stroke="#000" stroke-miterlimit="10" fill="none"/><path d="M66.438 122.973h14v11h-14zm0 0" fill="#fff"/><g fill="#00f"><use xlink:href="#b" x="66.438" y="131.636"/><use xlink:href="#c" x="73.415" y="131.636"/></g><path d="M56.73 114.453l-21.48-3.793M49.273 93.953l7.457 20.5M35.25 110.66l14.023-16.707" stroke-width="1.2" stroke="#000" stroke-miterlimit="10" fill="none"/></g></svg>
